Sync/.obsidian/icons/remix-icons/Attachment2.svg

<svg viewBox="0 0 24 24" xmlns="http://www.w3.org/2000/svg" fill="currentColor" width="16px" height="16px"><path d="M14.8287 7.7574L9.1718 13.4143C8.78127 13.8048 8.78127 14.4379 9.1718 14.8285C9.56232 15.219 10.1955 15.219 10.586 14.8285L16.2429 9.17161C17.4144 8.00004 17.4144 6.10055 16.2429 4.92897C15.0713 3.7574 13.1718 3.7574 12.0002 4.92897L6.34337 10.5858C4.39075 12.5384 4.39075 15.7043 6.34337 17.6569C8.29599 19.6095 11.4618 19.6095 13.4144 17.6569L19.0713 12L20.4855 13.4143L14.8287 19.0711C12.095 21.8048 7.66283 21.8048 4.92916 19.0711C2.19549 16.3374 2.19549 11.9053 4.92916 9.17161L10.586 3.51476C12.5386 1.56214 15.7045 1.56214 17.6571 3.51476C19.6097 5.46738 19.6097 8.63321 17.6571 10.5858L12.0002 16.2427C10.8287 17.4143 8.92916 17.4143 7.75759 16.2427C6.58601 15.0711 6.58601 13.1716 7.75759 12L13.4144 6.34319L14.8287 7.7574Z"></path></svg>

<svg xmlns="http://www.w3.org/2000/svg" viewBox="0 0 24 24">
    <g>
        <path fill="none" d="M0 0h24v24H0z"/>
        <path d="M14.828 7.757l-5.656 5.657a1 1 0 1 0 1.414 1.414l5.657-5.656A3 3 0 1 0 12 4.929l-5.657 5.657a5 5 0 1 0 7.071 7.07L19.071 12l1.414 1.414-5.657 5.657a7 7 0 1 1-9.9-9.9l5.658-5.656a5 5 0 0 1 7.07 7.07L12 16.244A3 3 0 1 1 7.757 12l5.657-5.657 1.414 1.414z"/>
    </g>
</svg>
